flaticon/dialogue/envelope-4.svg

<svg xmlns="http://www.w3.org/2000/svg" width="32" height="32" viewBox="0 0 24 24">
    <path d="M 23.988281 10.613281 L 23.988281 10.589844 L 23.929688 10.558594 L 21.601562 8.390625 L 21.601562 3.597656 L 16.453125 3.597656 L 13.015625 0.398438 C 12.445312 -0.132812 11.554688 -0.132812 10.984375 0.398438 L 7.546875 3.597656 L 2.398438 3.597656 L 2.398438 8.390625 L 0.0429688 10.582031 L 0 10.613281 L 0 24 L 24 24 L 24 10.625 Z M 12.828125 17.195312 L 16.808594 15 L 21.601562 12.359375 L 23.199219 11.476562 L 23.199219 22.914062 L 21.316406 21.875 Z M 22.925781 10.714844 L 21.601562 11.445312 L 21.601562 9.484375 Z M 11.527344 0.984375 C 11.792969 0.738281 12.207031 0.738281 12.472656 0.984375 L 15.28125 3.597656 L 8.71875 3.597656 Z M 3.199219 4.398438 L 20.800781 4.398438 L 20.800781 11.886719 L 13.558594 15.878906 L 12 16.738281 L 3.199219 11.886719 Z M 2.398438 11.445312 L 1.078125 10.714844 L 2.398438 9.484375 Z M 0.800781 23.199219 L 0.800781 11.476562 L 2.398438 12.359375 L 9.527344 16.289062 L 11.171875 17.195312 L 15.296875 19.46875 L 22.0625 23.199219 Z M 0.800781 23.199219"/>
    <path d="M10.800781 7.199219L13.199219 7.199219C13.421875 7.199219 13.601562 7.019531 13.601562 6.796875 13.601562 6.578125 13.421875 6.398438 13.199219 6.398438L10.800781 6.398438C10.578125 6.398438 10.398438 6.578125 10.398438 6.796875 10.398438 7.019531 10.578125 7.199219 10.800781 7.199219zM16.800781 12.398438L14 12.398438C13.777344 12.398438 13.601562 12.578125 13.601562 12.796875 13.601562 13.019531 13.777344 13.199219 14 13.199219L16.800781 13.199219C17.019531 13.199219 17.199219 13.019531 17.199219 12.796875 17.199219 12.578125 17.019531 12.398438 16.800781 12.398438zM6.800781 10L8.800781 10C9.019531 10 9.199219 9.820312 9.199219 9.597656 9.199219 9.378906 9.019531 9.199219 8.800781 9.199219L6.800781 9.199219C6.578125 9.199219 6.398438 9.378906 6.398438 9.597656 6.398438 9.820312 6.578125 10 6.800781 10zM11.601562 9.597656C11.601562 9.820312 11.777344 10 12 10L15.199219 10C15.421875 10 15.601562 9.820312 15.601562 9.597656 15.601562 9.378906 15.421875 9.199219 15.199219 9.199219L12 9.199219C11.777344 9.199219 11.601562 9.378906 11.601562 9.597656zM10.398438 10C10.503906 10 10.609375 9.953125 10.683594 9.882812 10.757812 9.808594 10.800781 9.703125 10.800781 9.597656 10.800781 9.492188 10.757812 9.390625 10.683594 9.316406 10.535156 9.167969 10.265625 9.167969 10.117188 9.316406 10.042969 9.390625 10 9.492188 10 9.597656 10 9.703125 10.042969 9.808594 10.117188 9.882812 10.191406 9.953125 10.296875 10 10.398438 10zM12.398438 12.398438L8.398438 12.398438C8.179688 12.398438 8 12.578125 8 12.796875 8 13.019531 8.179688 13.199219 8.398438 13.199219L12.398438 13.199219C12.621094 13.199219 12.800781 13.019531 12.800781 12.796875 12.800781 12.578125 12.621094 12.398438 12.398438 12.398438zM6.800781 13.199219C6.902344 13.199219 7.007812 13.15625 7.085938 13.082031 7.15625 13.007812 7.199219 12.902344 7.199219 12.796875 7.199219 12.695312 7.160156 12.59375 7.085938 12.515625 6.9375 12.367188 6.667969 12.367188 6.515625 12.515625 6.441406 12.589844 6.398438 12.691406 6.398438 12.796875 6.398438 12.902344 6.445312 13.007812 6.515625 13.082031 6.589844 13.160156 6.695312 13.199219 6.800781 13.199219zM16.800781 10C16.902344 10 17.007812 9.953125 17.085938 9.882812 17.15625 9.808594 17.199219 9.703125 17.199219 9.597656 17.199219 9.496094 17.15625 9.390625 17.085938 9.316406 16.933594 9.167969 16.664062 9.167969 16.515625 9.316406 16.445312 9.390625 16.398438 9.492188 16.398438 9.597656 16.398438 9.703125 16.445312 9.808594 16.515625 9.882812 16.589844 9.953125 16.695312 10 16.800781 10zM16.800781 10"/>
</svg>

<svg xmlns="http://www.w3.org/2000/svg" width="32" height="32" viewBox="0 0 24 24">
    <path d="M23.988 10.613v-.023l-.058-.031-2.328-2.168V3.598h-5.149l-3.437-3.2a1.494 1.494 0 0 0-2.032 0l-3.437 3.2H2.398V8.39L.043 10.582 0 10.613V24h24V10.625zm-11.16 6.582L16.808 15l4.794-2.64 1.597-.883v11.437l-1.883-1.039zm10.098-6.48l-1.324.73v-1.96zM11.527.985a.697.697 0 0 1 .946 0l2.808 2.613H8.72zM3.2 4.397h17.602v7.489l-7.242 3.992-1.559.86-8.8-4.852zm-.8 7.047l-1.32-.73 1.32-1.23zM.8 23.2V11.477l1.597.882 7.13 3.93 1.644.906 4.125 2.274 6.765 3.73zm0 0"/>
    <path d="M10.8 7.2h2.4a.401.401 0 0 0 0-.8l-2.4-.002a.401.401 0 1 0 0 .801zm0 0M16.8 12.398H14a.398.398 0 0 0-.398.399c0 .223.175.402.398.402h2.8a.401.401 0 0 0 0-.8zm0 0M6.8 10h2a.401.401 0 0 0 0-.8h-2a.401.401 0 1 0 0 .8zm0 0M11.602 9.598c0 .222.175.402.398.402h3.2a.401.401 0 0 0 0-.8H12a.398.398 0 0 0-.398.398zm0 0M10.398 10c.106 0 .211-.047.286-.117a.4.4 0 0 0 0-.566.416.416 0 0 0-.567 0 .4.4 0 0 0 .281.683zm0 0M12.398 12.398h-4a.4.4 0 0 0 0 .801h4a.401.401 0 0 0 0-.8zm0 0M6.8 13.2a.423.423 0 0 0 .286-.118.41.41 0 0 0 0-.566.42.42 0 0 0-.57 0 .4.4 0 0 0 0 .566c.074.078.18.117.285.117zm0 0M16.8 10a.442.442 0 0 0 .286-.117.423.423 0 0 0 .113-.285.42.42 0 0 0-.113-.282.42.42 0 0 0-.57 0 .417.417 0 0 0-.118.282c0 .105.047.21.118.285.074.07.18.117.285.117zm0 0"/>
</svg>
